IconSet/eva icons.iconjar/icons/printer-outline.svg

<svg xmlns="http://www.w3.org/2000/svg" viewBox="0 0 24 24"><g data-name="Layer 2"><g data-name="printer"><rect width="24" height="24" opacity="0"/><path d="M19.36 7H18V5a1.92 1.92 0 0 0-1.83-2H7.83A1.92 1.92 0 0 0 6 5v2H4.64A2.66 2.66 0 0 0 2 9.67v6.66A2.66 2.66 0 0 0 4.64 19h.86a2 2 0 0 0 2 2h9a2 2 0 0 0 2-2h.86A2.66 2.66 0 0 0 22 16.33V9.67A2.66 2.66 0 0 0 19.36 7zM8 5h8v2H8zm-.5 14v-4h9v4zM20 16.33a.66.66 0 0 1-.64.67h-.86v-2a2 2 0 0 0-2-2h-9a2 2 0 0 0-2 2v2h-.86a.66.66 0 0 1-.64-.67V9.67A.66.66 0 0 1 4.64 9h14.72a.66.66 0 0 1 .64.67z"/></g></g></svg>

<svg xmlns="http://www.w3.org/2000/svg" viewBox="0 0 24 24"><defs><style>.cls-1{fill:#fff;opacity:0;}.cls-2{fill:#231f20;}</style></defs><title>printer</title><g id="Layer_2" data-name="Layer 2"><g id="printer"><g id="printer-2" data-name="printer"><rect class="cls-1" width="24" height="24"/><path class="cls-2" d="M19.36,7H18V5a1.92,1.92,0,0,0-1.83-2H7.83A1.92,1.92,0,0,0,6,5V7H4.64A2.66,2.66,0,0,0,2,9.67v6.66A2.66,2.66,0,0,0,4.64,19H5.5a2,2,0,0,0,2,2h9a2,2,0,0,0,2-2h.86A2.66,2.66,0,0,0,22,16.33V9.67A2.66,2.66,0,0,0,19.36,7ZM8,5h8V7H8ZM7.5,19V15h9v4ZM20,16.33a.66.66,0,0,1-.64.67H18.5V15a2,2,0,0,0-2-2h-9a2,2,0,0,0-2,2v2H4.64A.66.66,0,0,1,4,16.33V9.67A.66.66,0,0,1,4.64,9H19.36a.66.66,0,0,1,.64.67Z"/></g></g></g></svg>
